usr/share/icons/Yaru-MATE-light/scalable/places/start-here-symbolic.svg

<?xml version="1.0" encoding="UTF-8" standalone="no"?>
<svg
   xmlns:dc="http://purl.org/dc/elements/1.1/"
   xmlns:cc="http://creativecommons.org/ns#"
   xmlns:rdf="http://www.w3.org/1999/02/22-rdf-syntax-ns#"
   xmlns:svg="http://www.w3.org/2000/svg"
   xmlns="http://www.w3.org/2000/svg"
   xmlns:sodipodi="http://sodipodi.sourceforge.net/DTD/sodipodi-0.dtd"
   xmlns:inkscape="http://www.inkscape.org/namespaces/inkscape"
   width="16"
   height="16"
   id="svg4275"
   version="1.1"
   inkscape:version="1.0.1 (3bc2e813f5, 2020-09-07)"
   sodipodi:docname="start-here-symbolic.svg">
  <defs
     id="defs4277" />
  <sodipodi:namedview
     id="base"
     pagecolor="#ffffff"
     bordercolor="#666666"
     borderopacity="1.0"
     inkscape:pageopacity="0.0"
     inkscape:pageshadow="2"
     inkscape:zoom="2"
     inkscape:cx="11.140661"
     inkscape:cy="7.2983104"
     inkscape:document-units="px"
     inkscape:current-layer="layer1"
     showgrid="false"
     inkscape:window-width="1294"
     inkscape:window-height="704"
     inkscape:window-x="72"
     inkscape:window-y="27"
     inkscape:window-maximized="1"
     inkscape:snap-global="true"
     inkscape:snap-bbox="true"
     inkscape:bbox-nodes="true"
     inkscape:object-paths="true"
     inkscape:snap-intersection-paths="true"
     inkscape:snap-smooth-nodes="true"
     inkscape:snap-bbox-edge-midpoints="true"
     inkscape:snap-bbox-midpoints="true"
     inkscape:bbox-paths="true"
     inkscape:document-rotation="0"
     showborder="false">
    <inkscape:grid
       type="xygrid"
       id="grid4292"
       empspacing="4"
       visible="true"
       enabled="true"
       snapvisiblegridlinesonly="true" />
  </sodipodi:namedview>
  <metadata
     id="metadata4280">
    <rdf:RDF>
      <cc:Work
         rdf:about="">
        <dc:format>image/svg+xml</dc:format>
        <dc:type
           rdf:resource="http://purl.org/dc/dcmitype/StillImage" />
        <dc:title></dc:title>
      </cc:Work>
    </rdf:RDF>
  </metadata>
  <g
     inkscape:label="Layer 1"
     inkscape:groupmode="layer"
     id="layer1"
     transform="translate(0,-892.36218)">
    <g
       id="g3769"
       transform="matrix(0.11111111,0,0,0.11111111,-0.888889,792.32194)">
      <path
         id="path3171-7-3-3-8-7-0-9-6-3"
         style="fill:#808080;fill-opacity:1;stroke-width:0.111111"
         d="M 8 0 C 3.581696 0 0 3.5815834 0 8 C 0 12.418138 3.581696 16 8 16 C 12.418248 16 16 12.418082 16 8 C 16 3.5815834 12.418248 -1.1842379e-15 8 0 z M 9 2 L 12.445312 4 L 9 6 L 9 2 z M 8 3.1074219 C 8.1023197 3.1074219 8.2004064 3.1220685 8.3007812 3.1289062 L 8.3007812 3.8066406 C 8.2002717 3.7991336 8.1026527 3.78125 8 3.78125 C 6.222983 3.78125 4.7034921 4.8700823 4.0800781 6.4199219 L 3.5039062 6.0800781 C 4.2523663 4.3352909 5.98545 3.1074219 8 3.1074219 z M 8 4.7714844 C 8.1030857 4.7714844 8.2001749 4.7945383 8.3007812 4.8046875 L 8.3007812 5.4863281 C 8.2000717 5.4741515 8.10418 5.4472656 8 5.4472656 C 6.83299 5.4472656 5.8593174 6.2242621 5.5527344 7.2890625 L 4.9550781 6.9335938 C 5.3968561 5.6765879 6.596758 4.7714844 8 4.7714844 z M 11.923828 5.0800781 C 12.532338 5.8958875 12.892578 6.9072992 12.892578 8 C 12.892578 9.1097297 12.518563 10.136769 11.892578 10.958984 L 11.3125 10.615234 C 11.879892 9.8969677 12.21875 8.9896127 12.21875 8 C 12.21875 7.0289729 11.892069 6.1355859 11.34375 5.4238281 L 11.923828 5.0800781 z M 10.476562 5.9375 C 10.945379 6.4982428 11.228516 7.2166961 11.228516 8 C 11.228516 8.8010001 10.933181 9.5372672 10.445312 10.103516 L 9.8515625 9.7539062 C 10.285586 9.2980964 10.552734 8.6835339 10.552734 8 C 10.552734 7.3358778 10.300676 6.7343096 9.8886719 6.28125 L 10.476562 5.9375 z M 2 6 L 5.4453125 8 L 2 10 L 2 6 z M 5.5527344 8.7109375 C 5.8593174 9.7748976 6.83299 10.548828 8 10.548828 C 8.1041999 10.548828 8.2000831 10.522073 8.3007812 10.509766 L 8.3007812 11.195312 C 8.2001749 11.205462 8.1030857 11.228516 8 11.228516 C 6.595676 11.228516 5.3959221 10.321038 4.9550781 9.0625 L 5.5527344 8.7109375 z M 4.0800781 9.5800781 C 4.7034921 11.129917 6.222983 12.21875 8 12.21875 C 8.1025189 12.21875 8.2003051 12.202659 8.3007812 12.195312 L 8.3007812 12.871094 C 8.2002684 12.878088 8.1019817 12.892578 8 12.892578 C 5.98545 12.892578 4.2523663 11.66471 3.5039062 9.9199219 L 4.0800781 9.5800781 z M 9 10 L 12.441406 12.054688 L 9 14 L 9 10.400391 L 9 10 z "
         transform="matrix(9.0000001,0,0,9.0000001,8.0000011,900.36217)" />
    </g>
  </g>
</svg>

<svg version="1.1" viewBox="0 0 16 16" xmlns="http://www.w3.org/2000/svg">
 <g transform="translate(0 -892.36)">
  <g transform="matrix(.11111 0 0 .11111 -.88889 792.32)">
   <path transform="matrix(9 0 0 9 8 900.36)" d="m8 0c-4.4183 0-8 3.5816-8 8 0 4.4181 3.5817 8 8 8 4.4182 0 8-3.5819 8-8 0-4.4184-3.5818-8-8-8zm1 2 3.4453 2-3.4453 2v-4zm-1 1.1074c0.10232 0 0.20041 0.014647 0.30078 0.021484v0.67773c-0.10051-0.007507-0.19813-0.025391-0.30078-0.025391-1.777 0-3.2965 1.0888-3.9199 2.6387l-0.57617-0.33984c0.74846-1.7448 2.4815-2.9727 4.4961-2.9727zm0 1.6641c0.10309 0 0.20017 0.023054 0.30078 0.033203v0.68164c-0.10071-0.012177-0.1966-0.039062-0.30078-0.039062-1.167 0-2.1407 0.777-2.4473 1.8418l-0.59766-0.35547c0.44178-1.257 1.6417-2.1621 3.0449-2.1621zm3.9238 0.30859c0.60851 0.81581 0.96875 1.8272 0.96875 2.9199 0 1.1097-0.37402 2.1368-1 2.959l-0.58008-0.34375c0.56739-0.71827 0.90625-1.6256 0.90625-2.6152 0-0.97103-0.32668-1.8644-0.875-2.5762l0.58008-0.34375zm-1.4473 0.85742c0.46882 0.56074 0.75195 1.2792 0.75195 2.0625 0 0.801-0.29534 1.5373-0.7832 2.1035l-0.59375-0.34961c0.43402-0.45581 0.70117-1.0704 0.70117-1.7539 0-0.66412-0.25206-1.2657-0.66406-1.7188l0.58789-0.34375zm-8.4766 0.0625 3.4453 2-3.4453 2v-4zm3.5527 2.7109c0.30658 1.064 1.2803 1.8379 2.4473 1.8379 0.1042 0 0.20008-0.026755 0.30078-0.039062v0.68555c-0.10061 0.01015-0.1977 0.033204-0.30078 0.033204-1.4043 0-2.6041-0.90748-3.0449-2.166l0.59766-0.35156zm-1.4727 0.86914c0.62341 1.5498 2.1429 2.6387 3.9199 2.6387 0.10252 0 0.20031-0.016091 0.30078-0.023438v0.67578c-0.10051 0.006994-0.1988 0.021484-0.30078 0.021484-2.0146 0-3.7476-1.2279-4.4961-2.9727l0.57617-0.33984zm4.9199 0.41992 3.4414 2.0547-3.4414 1.9453v-3.5996-0.40039z" fill="#808080" stroke-width=".11111"/>
  </g>
 </g>
</svg>
